X: 1
T: The Big House
R: reel
M: 4/4
L: 1/8
K: Gmaj
B2dB GBdB|cBAG FDEF|GBdB cdeg|f2af gedB|
GBdG ~G3B|cBAG FGAB|defg afge|dBcA BG~G2:|
B/c/d gf gdBd|cBAG FGAB|cdef gefg|abaf gdBc|
d2gf gd B/c/d|cBAG FGAB|defg afge|dBcA BG~G2:|

composer: Joe Liddy
